blob-shape.svg

<?xml version="1.0" encoding="UTF-8" standalone="no"?>
<svg
   xmlns:dc="http://purl.org/dc/elements/1.1/"
   xmlns:cc="http://creativecommons.org/ns#"
   xmlns:rdf="http://www.w3.org/1999/02/22-rdf-syntax-ns#"
   xmlns:svg="http://www.w3.org/2000/svg"
   xmlns="http://www.w3.org/2000/svg"
   xmlns:sodipodi="http://sodipodi.sourceforge.net/DTD/sodipodi-0.dtd"
   xmlns:inkscape="http://www.inkscape.org/namespaces/inkscape"
   width="600"
   height="600"
   viewBox="0 0 600 600"
   id="svg2"
   version="1.1"
   inkscape:version="0.91 r13725"
   sodipodi:docname="blob-shape.svg"
   inkscape:export-filename="/Users/qbilius/Downloads/favicon.png"
   inkscape:export-xdpi="28.799999"
   inkscape:export-ydpi="28.799999">
  <metadata
     id="metadata12">
    <rdf:RDF>
      <cc:Work
         rdf:about="">
        <dc:format>image/svg+xml</dc:format>
        <dc:type
           rdf:resource="http://purl.org/dc/dcmitype/StillImage" />
        <dc:title></dc:title>
      </cc:Work>
    </rdf:RDF>
  </metadata>
  <defs
     id="defs10" />
  <sodipodi:namedview
     pagecolor="#ffffff"
     bordercolor="#666666"
     borderopacity="1"
     objecttolerance="10"
     gridtolerance="10"
     guidetolerance="10"
     inkscape:pageopacity="0"
     inkscape:pageshadow="2"
     inkscape:window-width="1399"
     inkscape:window-height="802"
     id="namedview8"
     showgrid="false"
     inkscape:zoom="0.39333333"
     inkscape:cx="300"
     inkscape:cy="300"
     inkscape:window-x="0"
     inkscape:window-y="0"
     inkscape:window-maximized="0"
     inkscape:current-layer="svg2" />
  <g
     transform="translate(317.79661,317.79661)"
     id="g4"
     style="fill:#d35f5f;fill-opacity:1">
    <path
       d="m 129.2,-197.5 c 23.2,11.4 16.6,72.7 -1.2,115.2 -17.7,42.4 -46.6,66.1 -54.6,89.9 -7.9,23.8 5.1,47.7 5.9,79.3 0.9,31.5 -10.3,70.6 -30.3,73.6 -20,2.9 -48.7,-30.3 -80.3,-44.1 -31.5,-13.8 -65.9,-8.1 -76,-22.1 -10.1,-14.1 4.1,-47.8 -18.6,-87.1 -22.6,-39.4 -82.1,-84.4 -84.3,-113 -2.1,-28.6 52.9,-40.9 97.5,-42.6 44.6,-1.6 78.6,7.4 122.2,-7.3 43.5,-14.7 96.5,-53.2 119.7,-41.8 z"
       id="path6"
       style="fill:#d35f5f;fill-opacity:1"
       inkscape:connector-curvature="0" />
  </g>
</svg>

<?xml version="1.0" standalone="no"?>
<svg
  width="600"
  height="600"
  viewBox="0 0 600 600"
  xmlns="http://www.w3.org/2000/svg"
>
  <g transform="translate(300,300)">
    <path d="M129.2,-197.5C152.4,-186.1,145.8,-124.8,128,-82.3C110.3,-39.9,81.4,-16.2,73.4,7.6C65.5,31.4,78.5,55.3,79.3,86.9C80.2,118.4,69,157.5,49,160.5C29,163.4,0.3,130.2,-31.3,116.4C-62.8,102.6,-97.2,108.3,-107.3,94.3C-117.4,80.2,-103.2,46.5,-125.9,7.2C-148.5,-32.2,-208,-77.2,-210.2,-105.8C-212.3,-134.4,-157.3,-146.7,-112.7,-148.4C-68.1,-150,-34.1,-141,9.5,-155.7C53,-170.4,106,-208.9,129.2,-197.5Z" fill="#222211" />
  </g>
</svg>
